src/22/actions/office-chart-ring.svg

<svg xmlns="http://www.w3.org/2000/svg" viewBox="0 0 22 22">
  <defs id="defs3051">
    <style type="text/css" id="current-color-scheme">
      .ColorScheme-Text {
        color:#5d656b;
      }
      .ColorScheme-Highlight {
        color:#3daee9;
      }
      </style>
  </defs>
 <path 
     style="fill:currentColor;fill-opacity:1;stroke:none" 
     d="M 10 3.0683594 C 6.0443281 3.5584193 3 6.907464 3 11 C 3 15.092536 6.0443281 18.441581 10 18.931641 L 10 17.921875 C 6.6006429 17.438059 4 14.537215 4 11 C 4 7.4627852 6.6006429 4.5619415 10 4.078125 L 10 3.0683594 z M 12 3.0683594 L 12 4.078125 C 15.399357 4.5619415 18 7.4627852 18 11 C 18 14.537215 15.399357 17.438059 12 17.921875 L 12 18.931641 C 15.955672 18.441581 19 15.092536 19 11 C 19 6.907464 15.955672 3.5584193 12 3.0683594 z M 11 5 C 7.676 5 5 7.676 5 11 C 5 14.324 7.676 17 11 17 C 14.324 17 17 14.324 17 11 C 17 10.118224 16.807518 9.283967 16.46875 8.53125 L 15.6875 9.3125 C 15.877228 9.8417746 16 10.403857 16 11 C 16 13.77 13.77 16 11 16 C 8.23 16 6 13.77 6 11 C 6 8.23 8.23 6 11 6 C 12.641573 6 14.079708 6.7951359 14.990234 8.0097656 L 15.712891 7.2871094 C 14.616004 5.8947115 12.918061 5 11 5 z M 11 7 C 9.892 7 8.8929219 7.4469219 8.1699219 8.1699219 L 8.8769531 8.8769531 C 9.4192031 8.3347031 10.169 8 11 8 C 12.662 8 14 9.338 14 11 C 14 12.662 12.662 14 11 14 C 9.338 14 8 12.662 8 11 C 8 10.698149 8.0564772 10.413074 8.1386719 10.138672 L 7.3574219 9.3574219 C 7.1318349 9.8589963 7 10.412506 7 11 C 7 13.216 8.784 15 11 15 C 13.216 15 15 13.216 15 11 C 15 8.784 13.216 7 11 7 z "
     class="ColorScheme-Text"
     />
</svg>

<svg xmlns="http://www.w3.org/2000/svg" viewBox="0 0 22 22"><defs id="defs3051"><style type="text/css" id="current-color-scheme"></style></defs><path d="M10 3.068c-3.956.49-7 3.84-7 7.932a7.976 7.976 0 0 0 7 7.932v-1.01C6.6 17.438 4 14.537 4 11s2.6-6.438 6-6.922v-1.01zm2 0v1.01c3.4.484 6 3.385 6 6.922s-2.6 6.438-6 6.922v1.01c3.956-.49 7-3.84 7-7.932a7.976 7.976 0 0 0-7-7.932zM11 5c-3.324 0-6 2.676-6 6s2.676 6 6 6 6-2.676 6-6c0-.882-.192-1.716-.531-2.469l-.782.781c.19.53.313 1.092.313 1.688 0 2.77-2.23 5-5 5s-5-2.23-5-5 2.23-5 5-5a4.97 4.97 0 0 1 3.99 2.01l.723-.723A5.978 5.978 0 0 0 11 5zm0 2a3.986 3.986 0 0 0-2.83 1.17l.707.707A2.99 2.99 0 0 1 11 8c1.662 0 3 1.338 3 3s-1.338 3-3 3-3-1.338-3-3c0-.302.056-.587.139-.861l-.782-.782A3.99 3.99 0 0 0 11 15c2.216 0 4-1.784 4-4s-1.784-4-4-4z" fill="currentColor" color="#5d656b"/></svg>
